X:512
T:Dawn Chorus, The
R:jig
C:Charlie Lennon
Z:id:hn-jig-512
M:6/8
L:1/8
K:G
B3 BAB | ded BGE | D2A AGA | DEG AGE |
D2B BAB | dBB BAG | ABd BAB |1 FEE EDE :|2 FEE E2f ||
|: gee efg | ~f3 def | gfg aga | bge e2f |
~g3 gfe | ded dBd | ~g3 ~B3 |1 dBA GBd :|2 ded DEG ||
P:variations
|: B3 BAB | dBB BGE | D2A AGA | d2A AGE |
D2B BAB | dBB BAG | ABd BAB |1 FEE EDE :|2 FEE E2f ||
|: geB efg | f2d def | gfg aga | bge e2f |
gag gfe | ded ABd | gBB dBA |1 B2G GBd :|2 B2G DEG ||

